Newaita-dark/actions/22/call-stop.svg

<svg xmlns="http://www.w3.org/2000/svg" xmlns:xlink="http://www.w3.org/1999/xlink" width="22px" height="22px" viewBox="0 0 22 22" version="1.1">
<g id="surface1">
<path style=" stroke:none;fill-rule:nonzero;fill:rgb(95.686275%,26.274511%,21.176471%);fill-opacity:0.986348;" d="M 2.273438 11.996094 L 6.820312 11.996094 C 7.324219 11.996094 7.730469 12.402344 7.730469 12.90625 L 7.730469 13.816406 C 7.730469 14.316406 7.324219 14.726562 6.820312 14.726562 L 2.273438 14.726562 C 1.773438 14.726562 1.363281 14.316406 1.363281 13.816406 L 1.363281 12.90625 C 1.363281 12.402344 1.773438 11.996094 2.273438 11.996094 Z M 2.273438 11.996094 "/>
<path style=" stroke:none;fill-rule:nonzero;fill:rgb(95.686275%,26.274511%,21.176471%);fill-opacity:1;" d="M 10.914062 7.449219 C 9.097656 7.449219 2.273438 7.449219 2.273438 11.542969 L 6.820312 11.542969 C 6.820312 10.175781 9.097656 9.269531 10.914062 9.269531 C 12.734375 9.269531 15.007812 10.175781 15.007812 11.542969 L 19.554688 11.542969 C 19.554688 7.449219 12.734375 7.449219 10.914062 7.449219 Z M 10.914062 7.449219 "/>
<path style=" stroke:none;fill-rule:nonzero;fill:rgb(95.686275%,26.274511%,21.176471%);fill-opacity:0.986348;" d="M 19.554688 11.996094 L 15.007812 11.996094 C 14.507812 11.996094 14.097656 12.402344 14.097656 12.90625 L 14.097656 13.816406 C 14.097656 14.316406 14.507812 14.726562 15.007812 14.726562 L 19.554688 14.726562 C 20.058594 14.726562 20.464844 14.316406 20.464844 13.816406 L 20.464844 12.90625 C 20.464844 12.402344 20.058594 11.996094 19.554688 11.996094 Z M 19.554688 11.996094 "/>
</g>
</svg>

<svg xmlns="http://www.w3.org/2000/svg" width="22pt" height="22pt" viewBox="0 0 22 22"><g fill="#ef5350"><path d="M2.273 11.996H6.82c.504 0 .91.406.91.91v.91c0 .5-.406.91-.91.91H2.273c-.5 0-.91-.41-.91-.91v-.91c0-.504.41-.91.91-.91zm0 0" fill-opacity=".986"/><path d="M10.914 7.45c-1.816 0-8.64 0-8.64 4.093H6.82c0-1.367 2.278-2.273 4.094-2.273 1.82 0 4.094.906 4.094 2.273h4.547c0-4.094-6.82-4.094-8.64-4.094zm0 0"/><path d="M19.555 11.996h-4.547c-.5 0-.91.406-.91.91v.91c0 .5.41.91.91.91h4.547c.504 0 .91-.41.91-.91v-.91a.909.909 0 0 0-.91-.91zm0 0" fill-opacity=".986"/></g></svg>
